svg/blobs-icons/no-decorations/sand-castle.svg

<svg xmlns="http://www.w3.org/2000/svg" xmlns:xlink="http://www.w3.org/1999/xlink" preserveAspectRatio="xMidYMid" width="217" height="180" viewBox="0 0 217 180"><defs><style>.cls-3{fill:#ff3a2f}.cls-4{fill:#020403;opacity:.35}.cls-7{fill:#020403}.cls-11{fill:#142a3b}.cls-16{fill:#fbb713}.cls-17{fill:#fff}</style></defs><g id="group-61svg"><path d="M113.881.007s40.388 40.395 40.388 40.395-16.667.0-16.667.0.0 71.46.0 71.46 15.552.0 15.552.0.0-21.331.0-21.331 51.998.0 51.998.0S205.152 90.525 205.152 90.525s0 78.661.0 78.661C198.44 165.415 191.051 163.334 183.332 163.334 182.211 163.334 181.067 163.39 179.856 163.499 174.691 158.265 168.189 155.42 161.266 155.42 159.434 155.42 157.58 155.665 155.64 156.166 143.057 146.182 127.556 140.721 111.628 140.721 99.972 140.721 88.528 143.645 78.22 149.203 72.907 143.105 65.762 139.589 58.31 139.589c-13.072.0-24.131 10.178-27.526 24.746C26.352 165.29 22.091 166.985 18.058 169.249V111.857s0-21.332.0-21.332 51.999.0 51.999.0.0 21.332.0 21.332 15.552.0 15.552.0.0-71.46.0-71.46-16.668.0-16.668.0S109.33.001 109.33.001s0 0 0 0" id="path-1" class="cls-3" fill-rule="evenodd"/><path d="M62.438 90.525s0 21.332.0 21.332 7.618.0 7.618.0.0-21.332.0-21.332-7.618.0-7.618.0z" id="path-2" class="cls-4" fill-rule="evenodd"/><path d="M113.881.007s40.388 40.395 40.388 40.395-7.619.0-7.619.0S107.793 1.538 107.793 1.538 109.33.001 109.33.001s4.551.006 4.551.006z" id="path-3" class="cls-4" fill-rule="evenodd"/><path d="M129.984 111.862s7.618.0 7.618.0.0-71.46.0-71.46-7.618.0-7.618.0.0 71.46.0 71.46z" id="path-4" class="cls-4" fill-rule="evenodd"/><path d="M154.69 155.474C155.001 155.713 155.332 155.921 155.64 156.165 156.318 155.99 156.977 155.886 157.637 155.773 156.665 155.616 155.683 155.515 154.69 155.474z" id="path-5" class="cls-7" fill-rule="evenodd"/><path d="M197.535 165.84C200.144 166.747 202.706 167.812 205.153 169.186V90.531s-7.618.0-7.618.0.0 75.309.0 75.309z" id="path-6" class="cls-4" fill-rule="evenodd"/><path d="M104.009 140.721C94.264 140.721 84.674 142.792 75.763 146.712 76.615 147.491 77.442 148.31 78.22 149.203 87.233 144.342 97.116 141.497 107.249 140.859 106.169 140.809 105.094 140.721 104.009 140.721z" id="path-7" class="cls-7" fill-rule="evenodd"/><path d="M50.692 139.589c-13.072.0-24.131 10.177-27.527 24.746C21.432 164.708 19.735 165.226 18.058 165.816V169.249C22.092 166.985 26.351 165.29 30.784 164.335c3.053-13.098 12.307-22.621 23.642-24.414C53.193 139.725 51.95 139.589 50.692 139.589z" id="path-8" class="cls-4" fill-rule="evenodd"/><path d="M123.051 58.867c0-6.32-5.12-11.445-11.445-11.445C105.28 47.422 100.16 52.542 100.16 58.867V81.355s22.886.0 22.886.0.0-22.488.0-22.488S123.051 58.867 123.051 58.867z" id="path-9" class="cls-11" fill-rule="evenodd"/><path d="M112.535 47.516C114.317 49.533 115.432 52.154 115.432 55.057H115.427s0 22.488.0 22.488-15.267.0-15.267.0.0 3.81.0 3.81 22.886.0 22.886.0.0-22.488.0-22.488S123.051 58.867 123.051 58.867c0-6.002-4.634-10.871-10.516-11.351z" id="path-10" class="cls-4" fill-rule="evenodd"/><path d="M205.153 154.042C197.961 148.265 189.389 144.875 180.153 144.875 178.207 144.875 176.296 145.076 174.418 145.365 170.254 140.177 164.481 136.964 158.086 136.964 155.68 136.964 153.405 137.544 151.226 138.385c-11.536-10.034-26.456-16.121-42.783-16.121C95.593 122.264 83.641 126.075 73.488 132.566c-4.193-6.901-10.826-11.434-18.369-11.434-11.508.0-20.962 10.432-22.634 24.011C27.384 145.721 22.536 147.339 18.058 149.793v17.695s3.466.0 3.466.0C24.51 166.102 27.6 165.021 30.784 164.335c3.395-14.569 14.454-24.746 27.526-24.746C65.762 139.589 72.907 143.105 78.22 149.203 88.528 143.645 99.972 140.721 111.628 140.721 127.556 140.721 143.057 146.182 155.64 156.165 157.579 155.665 159.434 155.42 161.266 155.42 168.189 155.42 174.691 158.264 179.856 163.499 181.067 163.39 182.211 163.334 183.332 163.334c6.411.0 12.569 1.50700000000001 18.326 4.154h3.495s0-13.446.0-13.446z" id="path-11" class="cls-4" fill-rule="evenodd"/><path d="M162.199 73.022S162.199 80.133 162.199 80.133s10.427.0 10.427.0S172.626 73.022 172.626 73.022s13.277.0 13.277.0S185.903 80.133 185.903 80.133s10.427.0 10.427.0.0-6.667.0-6.667 13.276.0 13.276.0.0 6.667.0 6.667.0 13.243.0 13.243S209.606 93.41 209.606 93.41s-60.683.0-60.683.0S148.923 92.932 148.923 92.932s0-12.799.0-12.799S148.923 73.022 148.923 73.022s13.276.0 13.276.0z" id="path-12" class="cls-11" fill-rule="evenodd"/><path d="M74.289 93.376s0-13.243.0-13.243.0-6.667.0-6.667-13.277.0-13.277.0.0 6.667.0 6.667-10.427.0-10.427.0S50.585 73.022 50.585 73.022s-13.277.0-13.277.0S37.308 80.133 37.308 80.133s-10.427.0-10.427.0S26.881 73.022 26.881 73.022s-13.276.0-13.276.0S13.605 80.133 13.605 80.133s0 12.799.0 12.799S13.605 93.41 13.605 93.41s60.684.0 60.684.0S74.289 93.376 74.289 93.376z" id="path-13" class="cls-11" fill-rule="evenodd"/><path d="M180.152 156.304C178.207 156.304 176.296 156.503 174.418 156.794 170.254 151.605 164.48 148.391 158.086 148.391 155.68 148.391 153.405 148.971 151.226 149.814c-11.536-10.036-26.456-16.123-42.783-16.123C95.593 133.691 83.641 137.503 73.488 143.993 69.295 137.093 62.662 132.559 55.119 132.559c-11.508.0-20.961 10.433-22.634 24.012C19.202 158.073 7.574 166.515-.013 178.917H216.86C208.475 165.207 195.175 156.304 180.152 156.304z" id="path-14" class="cls-16" fill-rule="evenodd"/><path d="M198.526 174.583C197.824 174.583 197.116 174.379 196.491 173.953 190.344 169.756 183.376 167.537 176.344 167.537 174.777 167.537 173.13 167.679 171.163 167.983L169.099 168.303S167.791 166.674 167.791 166.674C164.141 162.127 159.343 159.624 154.278 159.624 152.565 159.624 150.8 159.999 148.721 160.803L146.69 161.589S145.045 160.159 145.045 160.159C133.752 150.335 119.399 144.924 104.634 144.924c-1.996.0-3.615-1.61700000000002-3.615-3.614C101.019 139.314 102.638 137.695 104.634 137.695c15.815.0 31.197 5.54300000000001 43.548 15.652C150.299 152.708 152.31 152.395 154.278 152.395c6.66300000000001.0 12.91 2.886 17.79 8.173C173.587 160.394 175 160.309 176.344 160.309 184.837 160.309 193.214 162.962 200.568 167.983 202.216 169.109 202.64 171.358 201.513 173.007 200.816 174.031 199.68 174.583 198.526 174.583z" id="path-15" class="cls-17" fill-rule="evenodd"/><path d="M68.62 153.669C67.482 153.669 66.361 153.131 65.657 152.129 61.887 146.754 56.792 143.792 51.31 143.792c-1.996.0-3.614-1.619-3.614-3.61500000000001.0-1.99599999999998 1.618-3.613 3.614-3.613C59.102 136.564 66.491 140.724 71.576 147.977 72.722 149.613 72.327 151.867 70.693 153.013 70.061 153.455 69.337 153.669 68.62 153.669z" id="path-16" class="cls-17" fill-rule="evenodd"/><path d="M197.535 100.223s-44.381-3.809-44.381-3.809S153.154 93.41 153.154 93.41s44.381.0 44.381.0.0 6.813.0 6.813z" id="path-17" class="cls-4" fill-rule="evenodd"/><path d="M62.994 100.223s-44.381-3.809-44.381-3.809S18.613 93.41 18.613 93.41s44.381.0 44.381.0.0 6.813.0 6.813z" id="path-18" class="cls-4" fill-rule="evenodd"/><path d="M129.984 44.989S85.609 41.18 85.609 41.18 85.609 40.397 85.609 40.397s44.375.0 44.375.0.0 4.592.0 4.592z" id="path-19" class="cls-7" fill-rule="evenodd"/></g></svg>

<svg xmlns="http://www.w3.org/2000/svg" xmlns:xlink="http://www.w3.org/1999/xlink" preserveAspectRatio="xMidYMid" width="217" height="180" viewBox="0 0 217 180">
  <defs>
    <style>

      .cls-3 {
        fill: #ff3a2f;
      }

      .cls-4 {
        fill: #020403;
        opacity: 0.35;
      }

      .cls-7 {
        fill: #020403;
      }

      .cls-11 {
        fill: #142a3b;
      }

      .cls-16 {
        fill: #fbb713;
      }

      .cls-17 {
        fill: #ffffff;
      }
    </style>
  </defs>
  <g id="group-61svg">
    <path d="M113.881,0.007 C113.881,0.007 154.269,40.402 154.269,40.402 C154.269,40.402 137.602,40.402 137.602,40.402 C137.602,40.402 137.602,111.862 137.602,111.862 C137.602,111.862 153.154,111.862 153.154,111.862 C153.154,111.862 153.154,90.531 153.154,90.531 C153.154,90.531 205.152,90.531 205.152,90.531 C205.152,90.531 205.152,90.525 205.152,90.525 C205.152,90.525 205.152,169.186 205.152,169.186 C198.440,165.415 191.051,163.334 183.332,163.334 C182.211,163.334 181.067,163.390 179.856,163.499 C174.691,158.265 168.189,155.420 161.266,155.420 C159.434,155.420 157.580,155.665 155.640,156.166 C143.057,146.182 127.556,140.721 111.628,140.721 C99.972,140.721 88.528,143.645 78.220,149.203 C72.907,143.105 65.762,139.589 58.310,139.589 C45.238,139.589 34.179,149.767 30.784,164.335 C26.352,165.290 22.091,166.985 18.058,169.249 C18.058,169.249 18.058,111.857 18.058,111.857 C18.058,111.857 18.058,90.525 18.058,90.525 C18.058,90.525 70.057,90.525 70.057,90.525 C70.057,90.525 70.057,111.857 70.057,111.857 C70.057,111.857 85.609,111.857 85.609,111.857 C85.609,111.857 85.609,40.397 85.609,40.397 C85.609,40.397 68.941,40.397 68.941,40.397 C68.941,40.397 109.330,0.001 109.330,0.001 C109.330,0.001 109.330,0.001 109.330,0.001 " id="path-1" class="cls-3" fill-rule="evenodd"/>
    <path d="M62.438,90.525 C62.438,90.525 62.438,111.857 62.438,111.857 C62.438,111.857 70.056,111.857 70.056,111.857 C70.056,111.857 70.056,90.525 70.056,90.525 C70.056,90.525 62.438,90.525 62.438,90.525 Z" id="path-2" class="cls-4" fill-rule="evenodd"/>
    <path d="M113.881,0.007 C113.881,0.007 154.269,40.402 154.269,40.402 C154.269,40.402 146.650,40.402 146.650,40.402 C146.650,40.402 107.793,1.538 107.793,1.538 C107.793,1.538 109.330,0.001 109.330,0.001 C109.330,0.001 113.881,0.007 113.881,0.007 Z" id="path-3" class="cls-4" fill-rule="evenodd"/>
    <path d="M129.984,111.862 C129.984,111.862 137.602,111.862 137.602,111.862 C137.602,111.862 137.602,40.402 137.602,40.402 C137.602,40.402 129.984,40.402 129.984,40.402 C129.984,40.402 129.984,111.862 129.984,111.862 Z" id="path-4" class="cls-4" fill-rule="evenodd"/>
    <path d="M154.690,155.474 C155.001,155.713 155.332,155.921 155.640,156.165 C156.318,155.990 156.977,155.886 157.637,155.773 C156.665,155.616 155.683,155.515 154.690,155.474 Z" id="path-5" class="cls-7" fill-rule="evenodd"/>
    <path d="M197.535,165.840 C200.144,166.747 202.706,167.812 205.153,169.186 C205.153,169.186 205.153,90.531 205.153,90.531 C205.153,90.531 197.535,90.531 197.535,90.531 C197.535,90.531 197.535,165.840 197.535,165.840 Z" id="path-6" class="cls-4" fill-rule="evenodd"/>
    <path d="M104.009,140.721 C94.264,140.721 84.674,142.792 75.763,146.712 C76.615,147.491 77.442,148.310 78.220,149.203 C87.233,144.342 97.116,141.497 107.249,140.859 C106.169,140.809 105.094,140.721 104.009,140.721 Z" id="path-7" class="cls-7" fill-rule="evenodd"/>
    <path d="M50.692,139.589 C37.620,139.589 26.561,149.766 23.165,164.335 C21.432,164.708 19.735,165.226 18.058,165.816 C18.058,165.816 18.058,169.249 18.058,169.249 C22.092,166.985 26.351,165.290 30.784,164.335 C33.837,151.237 43.091,141.714 54.426,139.921 C53.193,139.725 51.950,139.589 50.692,139.589 Z" id="path-8" class="cls-4" fill-rule="evenodd"/>
    <path d="M123.051,58.867 C123.051,52.547 117.931,47.422 111.606,47.422 C105.280,47.422 100.160,52.542 100.160,58.867 C100.160,58.867 100.160,81.355 100.160,81.355 C100.160,81.355 123.046,81.355 123.046,81.355 C123.046,81.355 123.046,58.867 123.046,58.867 C123.046,58.867 123.051,58.867 123.051,58.867 Z" id="path-9" class="cls-11" fill-rule="evenodd"/>
    <path d="M112.535,47.516 C114.317,49.533 115.432,52.154 115.432,55.057 C115.432,55.057 115.427,55.057 115.427,55.057 C115.427,55.057 115.427,77.545 115.427,77.545 C115.427,77.545 100.160,77.545 100.160,77.545 C100.160,77.545 100.160,81.355 100.160,81.355 C100.160,81.355 123.046,81.355 123.046,81.355 C123.046,81.355 123.046,58.867 123.046,58.867 C123.046,58.867 123.051,58.867 123.051,58.867 C123.051,52.865 118.417,47.996 112.535,47.516 Z" id="path-10" class="cls-4" fill-rule="evenodd"/>
    <path d="M205.153,154.042 C197.961,148.265 189.389,144.875 180.153,144.875 C178.207,144.875 176.296,145.076 174.418,145.365 C170.254,140.177 164.481,136.964 158.086,136.964 C155.680,136.964 153.405,137.544 151.226,138.385 C139.690,128.351 124.770,122.264 108.443,122.264 C95.593,122.264 83.641,126.075 73.488,132.566 C69.295,125.665 62.662,121.132 55.119,121.132 C43.611,121.132 34.157,131.564 32.485,145.143 C27.384,145.721 22.536,147.339 18.058,149.793 C18.058,149.793 18.058,167.488 18.058,167.488 C18.058,167.488 21.524,167.488 21.524,167.488 C24.510,166.102 27.600,165.021 30.784,164.335 C34.179,149.766 45.238,139.589 58.310,139.589 C65.762,139.589 72.907,143.105 78.220,149.203 C88.528,143.645 99.972,140.721 111.628,140.721 C127.556,140.721 143.057,146.182 155.640,156.165 C157.579,155.665 159.434,155.420 161.266,155.420 C168.189,155.420 174.691,158.264 179.856,163.499 C181.067,163.390 182.211,163.334 183.332,163.334 C189.743,163.334 195.901,164.841 201.658,167.488 C201.658,167.488 205.153,167.488 205.153,167.488 C205.153,167.488 205.153,154.042 205.153,154.042 Z" id="path-11" class="cls-4" fill-rule="evenodd"/>
    <path d="M162.199,73.022 C162.199,73.022 162.199,80.133 162.199,80.133 C162.199,80.133 172.626,80.133 172.626,80.133 C172.626,80.133 172.626,73.022 172.626,73.022 C172.626,73.022 185.903,73.022 185.903,73.022 C185.903,73.022 185.903,80.133 185.903,80.133 C185.903,80.133 196.330,80.133 196.330,80.133 C196.330,80.133 196.330,73.466 196.330,73.466 C196.330,73.466 209.606,73.466 209.606,73.466 C209.606,73.466 209.606,80.133 209.606,80.133 C209.606,80.133 209.606,93.376 209.606,93.376 C209.606,93.376 209.606,93.410 209.606,93.410 C209.606,93.410 148.923,93.410 148.923,93.410 C148.923,93.410 148.923,92.932 148.923,92.932 C148.923,92.932 148.923,80.133 148.923,80.133 C148.923,80.133 148.923,73.022 148.923,73.022 C148.923,73.022 162.199,73.022 162.199,73.022 Z" id="path-12" class="cls-11" fill-rule="evenodd"/>
    <path d="M74.289,93.376 C74.289,93.376 74.289,80.133 74.289,80.133 C74.289,80.133 74.289,73.466 74.289,73.466 C74.289,73.466 61.012,73.466 61.012,73.466 C61.012,73.466 61.012,80.133 61.012,80.133 C61.012,80.133 50.585,80.133 50.585,80.133 C50.585,80.133 50.585,73.022 50.585,73.022 C50.585,73.022 37.308,73.022 37.308,73.022 C37.308,73.022 37.308,80.133 37.308,80.133 C37.308,80.133 26.881,80.133 26.881,80.133 C26.881,80.133 26.881,73.022 26.881,73.022 C26.881,73.022 13.605,73.022 13.605,73.022 C13.605,73.022 13.605,80.133 13.605,80.133 C13.605,80.133 13.605,92.932 13.605,92.932 C13.605,92.932 13.605,93.410 13.605,93.410 C13.605,93.410 74.289,93.410 74.289,93.410 C74.289,93.410 74.289,93.376 74.289,93.376 Z" id="path-13" class="cls-11" fill-rule="evenodd"/>
    <path d="M180.152,156.304 C178.207,156.304 176.296,156.503 174.418,156.794 C170.254,151.605 164.480,148.391 158.086,148.391 C155.680,148.391 153.405,148.971 151.226,149.814 C139.690,139.778 124.770,133.691 108.443,133.691 C95.593,133.691 83.641,137.503 73.488,143.993 C69.295,137.093 62.662,132.559 55.119,132.559 C43.611,132.559 34.158,142.992 32.485,156.571 C19.202,158.073 7.574,166.515 -0.013,178.917 C-0.013,178.917 216.860,178.917 216.860,178.917 C208.475,165.207 195.175,156.304 180.152,156.304 Z" id="path-14" class="cls-16" fill-rule="evenodd"/>
    <path d="M198.526,174.583 C197.824,174.583 197.116,174.379 196.491,173.953 C190.344,169.756 183.376,167.537 176.344,167.537 C174.777,167.537 173.130,167.679 171.163,167.983 C171.163,167.983 169.099,168.303 169.099,168.303 C169.099,168.303 167.791,166.674 167.791,166.674 C164.141,162.127 159.343,159.624 154.278,159.624 C152.565,159.624 150.800,159.999 148.721,160.803 C148.721,160.803 146.690,161.589 146.690,161.589 C146.690,161.589 145.045,160.159 145.045,160.159 C133.752,150.335 119.399,144.924 104.634,144.924 C102.638,144.924 101.019,143.307 101.019,141.310 C101.019,139.314 102.638,137.695 104.634,137.695 C120.449,137.695 135.831,143.238 148.182,153.347 C150.299,152.708 152.310,152.395 154.278,152.395 C160.941,152.395 167.188,155.281 172.068,160.568 C173.587,160.394 175.000,160.309 176.344,160.309 C184.837,160.309 193.214,162.962 200.568,167.983 C202.216,169.109 202.640,171.358 201.513,173.007 C200.816,174.031 199.680,174.583 198.526,174.583 Z" id="path-15" class="cls-17" fill-rule="evenodd"/>
    <path d="M68.620,153.669 C67.482,153.669 66.361,153.131 65.657,152.129 C61.887,146.754 56.792,143.792 51.310,143.792 C49.314,143.792 47.696,142.173 47.696,140.177 C47.696,138.181 49.314,136.564 51.310,136.564 C59.102,136.564 66.491,140.724 71.576,147.977 C72.722,149.613 72.327,151.867 70.693,153.013 C70.061,153.455 69.337,153.669 68.620,153.669 Z" id="path-16" class="cls-17" fill-rule="evenodd"/>
    <path d="M197.535,100.223 C197.535,100.223 153.154,96.414 153.154,96.414 C153.154,96.414 153.154,93.410 153.154,93.410 C153.154,93.410 197.535,93.410 197.535,93.410 C197.535,93.410 197.535,100.223 197.535,100.223 Z" id="path-17" class="cls-4" fill-rule="evenodd"/>
    <path d="M62.994,100.223 C62.994,100.223 18.613,96.414 18.613,96.414 C18.613,96.414 18.613,93.410 18.613,93.410 C18.613,93.410 62.994,93.410 62.994,93.410 C62.994,93.410 62.994,100.223 62.994,100.223 Z" id="path-18" class="cls-4" fill-rule="evenodd"/>
    <path d="M129.984,44.989 C129.984,44.989 85.609,41.180 85.609,41.180 C85.609,41.180 85.609,40.397 85.609,40.397 C85.609,40.397 129.984,40.397 129.984,40.397 C129.984,40.397 129.984,44.989 129.984,44.989 Z" id="path-19" class="cls-7" fill-rule="evenodd"/>
  </g>
</svg>
